X: 1522
T: Harry Cotter's Polka
B: australian traditional tunes wiki
M:2/4
L:1/16
R: Polka
Q: 1/4=100
K:C
V:1 
c3d|:"C"e3_e =e3_e|e2a2 a2e2|g2fg g2g2|"G7"B6de|f3e f3e|f2b2 b2bg|a2ag a2g2|"C"e6cd|
e3_e =e3_e|e2a2 a2ef|g2gf g2g2|"G7"B6cB|"F"A2f2 f2BA|"C"G2e2 e2ec|"G7"d2A2 B2G2|"C"c6Ac:|
|:"C"e2ed e2ed|e2c2 G2GA|G2GA G2c2|"G7"B6de|f2dd d2BB|B2AA A2A^G|GBdB G2c2|"C"e6ef|
g2ee e2cc|c2G2 "C7"G2A^G|Gcec G2c2|"F"A6cA|"G7"G2f2 f2BA|"C"G2e2 e2ec|"G7"d2A2 B2G2|"C"c8:|
% abcbook-tune_id 6342d53a9cd733a8dc805aae


% abcbook-boost 0
% abcbook-tablature 
% abcbook-transpose 
% abcbook-lastupdated 1665324369132
% abcbook-soundfonts 
% abcbook-repeats 1
% NFF Book 2013

